src/components/Icon/utils/svgsOptimized/bell-off.svg

<svg width="24" height="24" viewBox="0 0 24 24"  xmlns="http://www.w3.org/2000/svg">
<path d="M8.5 12.875C8.4 12.875 8.3 12.855 8.21 12.815C7.93 12.705 7.75 12.425 7.75 12.125V9.875C7.75 7.535 9.66 5.625 12 5.625C12.76 5.625 13.5 5.825 14.15 6.205C14.35 6.325 14.48 6.525 14.51 6.765C14.54 6.985 14.46 7.225 14.3 7.385L9.03 12.655C8.89 12.795 8.69 12.875 8.5 12.875Z" />
<path d="M17.47 5.845C17.76 5.555 18.24 5.555 18.53 5.845C18.82 6.135 18.82 6.615 18.53 6.905L16.2 9.235C16.23 9.445 16.25 9.665 16.25 9.875V12.875C16.25 13.465 16.49 14.025 16.96 14.515C17.3 14.885 17.4 15.405 17.2 15.865C17 16.325 16.55 16.625 16.05 16.625H13.9C13.64 17.635 12.89 18.375 12 18.375C11.1 18.375 10.36 17.635 10.1 16.625H8.81L6.53 18.905C6.38 19.055 6.19 19.125 6 19.125C5.81 19.125 5.62 19.055 5.47 18.905C5.18 18.615 5.18 18.135 5.47 17.845L17.47 5.845Z" />
</svg>

<?xml version="1.0" encoding="utf-8"?><svg width="24" height="24" xmlns="http://www.w3.org/2000/svg" viewBox="0 0 24 24"><path d="M8.5 12.875c-.1 0-.2-.02-.29-.06a.74.74 0 0 1-.46-.69v-2.25A4.26 4.26 0 0 1 12 5.625c.76 0 1.5.2 2.15.58.2.12.33.32.36.56.03.22-.05.46-.21.62l-5.27 5.27c-.14.14-.34.22-.53.22Zm8.97-7.03c.29-.29.77-.29 1.06 0 .29.29.29.77 0 1.06l-2.33 2.33c.03.21.05.43.05.64v3c0 .59.24 1.15.71 1.64.34.37.44.89.24 1.35-.2.46-.65.76-1.15.76H13.9c-.26 1.01-1.01 1.75-1.9 1.75-.9 0-1.64-.74-1.9-1.75H8.81l-2.28 2.28c-.15.15-.34.22-.53.22s-.38-.07-.53-.22a.754.754 0 0 1 0-1.06l12-12Z"/></svg>
